X: 1953
T: Vera Cotter's Schottische
B: australian traditional tunes wiki
M:4/4
L:1/8
R: Schottische
Q: 1/4=100
K:C
V:1 
zG|"C"(3Gce (3gecG4|"F"(3Adf (3afd A3B/A/|"G7"G>A B>c g>f (3dBG|a2g2"C"g2(3AGA|
(3Gce (3gecG4|"F" (3Adf (3afd A3B/A/|"G7"G>A B>c g>f (3dBG|d2c>B"C"c4|
"C"G>e d>c G>e d>c|"F"(3ABA d>fa2z2|"C" g>e "G7"f>d "C"e>c "G7"d>B|"C"(3cde (3dcAG4|
"C"G>e d>c G>e d>c|"F"(3ABA d>fa2z2|"C"g>e "G7"f>d "C"e>c "G7"A>B|"C"c2c2c2"G7"d2||
"C"(3edc G>G (3edc G>G|"F"(3fed A>A (3fed A>A|"G7"G>A B>c g>f (3dcB|"F"a2g2"C"g2(3Bcd|
"C"(3edc G>G (3edc G>G|"F"(3fed A>A (3fed A>A|"G7"G>A B>c g>f (3dcB|"F" d2"C" c2"C"c2z2||
% abcbook-tune_id 6342d5be773928039ab534fa


% abcbook-boost 0
% abcbook-tablature 
% abcbook-transpose 
% abcbook-lastupdated 1665324490086
% abcbook-soundfonts 
% abcbook-repeats 1
% NFF Book 2018

